images/dest/icon--twitter.svg

<svg width="26" height="21" viewBox="0 0 26 21" fill="none" xmlns="http://www.w3.org/2000/svg">
<path d="M22.8799 5.16171C22.8968 5.38878 22.8968 5.61456 22.8968 5.84034C22.8968 12.7499 17.6378 20.7117 8.02673 20.7117C5.06569 20.7117 2.31485 19.854 0 18.3644C0.420411 18.4124 0.825251 18.4293 1.26253 18.4293C3.70584 18.4293 5.95452 17.604 7.75165 16.1962C5.45366 16.1482 3.52808 14.643 2.86372 12.5721C3.18682 12.6201 3.51121 12.6525 3.85117 12.6525C4.31959 12.6525 4.79061 12.5877 5.22788 12.4748C2.83128 11.9895 1.03675 9.88614 1.03675 7.34551V7.28063C1.73355 7.6686 2.54193 7.91125 3.39832 7.94369C1.99046 7.00684 1.06789 5.40435 1.06789 3.59166C1.06789 2.62108 1.32611 1.73095 1.77896 0.955007C4.35203 4.12496 8.22007 6.19717 12.5565 6.42424C12.4761 6.03497 12.4268 5.63143 12.4268 5.22659C12.4268 2.346 14.7572 0 17.6534 0C19.1585 0 20.5171 0.630616 21.4721 1.6505C22.6529 1.42343 23.7843 0.986148 24.7887 0.387971C24.4007 1.60119 23.5741 2.62108 22.4907 3.26856C23.543 3.15438 24.5629 2.86372 25.4997 2.45888C24.7887 3.49434 23.8998 4.41691 22.8799 5.16171Z" fill="black"/>
<path d="M22.8799 5.16171C22.8968 5.38878 22.8968 5.61456 22.8968 5.84034C22.8968 12.7499 17.6378 20.7117 8.02673 20.7117C5.06569 20.7117 2.31485 19.854 0 18.3644C0.420411 18.4124 0.825251 18.4293 1.26253 18.4293C3.70584 18.4293 5.95452 17.604 7.75165 16.1962C5.45366 16.1482 3.52808 14.643 2.86372 12.5721C3.18682 12.6201 3.51121 12.6525 3.85117 12.6525C4.31959 12.6525 4.79061 12.5877 5.22788 12.4748C2.83128 11.9895 1.03675 9.88614 1.03675 7.34551V7.28063C1.73355 7.6686 2.54193 7.91125 3.39832 7.94369C1.99046 7.00684 1.06789 5.40435 1.06789 3.59166C1.06789 2.62108 1.32611 1.73095 1.77896 0.955007C4.35203 4.12496 8.22007 6.19717 12.5565 6.42424C12.4761 6.03497 12.4268 5.63143 12.4268 5.22659C12.4268 2.346 14.7572 0 17.6534 0C19.1585 0 20.5171 0.630616 21.4721 1.6505C22.6529 1.42343 23.7843 0.986148 24.7887 0.387971C24.4007 1.60119 23.5741 2.62108 22.4907 3.26856C23.543 3.15438 24.5629 2.86372 25.4997 2.45888C24.7887 3.49434 23.8998 4.41691 22.8799 5.16171Z" fill="url(#paint0_linear)"/>
<path d="M22.8799 5.16171C22.8968 5.38878 22.8968 5.61456 22.8968 5.84034C22.8968 12.7499 17.6378 20.7117 8.02673 20.7117C5.06569 20.7117 2.31485 19.854 0 18.3644C0.420411 18.4124 0.825251 18.4293 1.26253 18.4293C3.70584 18.4293 5.95452 17.604 7.75165 16.1962C5.45366 16.1482 3.52808 14.643 2.86372 12.5721C3.18682 12.6201 3.51121 12.6525 3.85117 12.6525C4.31959 12.6525 4.79061 12.5877 5.22788 12.4748C2.83128 11.9895 1.03675 9.88614 1.03675 7.34551V7.28063C1.73355 7.6686 2.54193 7.91125 3.39832 7.94369C1.99046 7.00684 1.06789 5.40435 1.06789 3.59166C1.06789 2.62108 1.32611 1.73095 1.77896 0.955007C4.35203 4.12496 8.22007 6.19717 12.5565 6.42424C12.4761 6.03497 12.4268 5.63143 12.4268 5.22659C12.4268 2.346 14.7572 0 17.6534 0C19.1585 0 20.5171 0.630616 21.4721 1.6505C22.6529 1.42343 23.7843 0.986148 24.7887 0.387971C24.4007 1.60119 23.5741 2.62108 22.4907 3.26856C23.543 3.15438 24.5629 2.86372 25.4997 2.45888C24.7887 3.49434 23.8998 4.41691 22.8799 5.16171Z" fill="url(#paint1_linear)"/>
<path d="M22.8799 5.16171C22.8968 5.38878 22.8968 5.61456 22.8968 5.84034C22.8968 12.7499 17.6378 20.7117 8.02673 20.7117C5.06569 20.7117 2.31485 19.854 0 18.3644C0.420411 18.4124 0.825251 18.4293 1.26253 18.4293C3.70584 18.4293 5.95452 17.604 7.75165 16.1962C5.45366 16.1482 3.52808 14.643 2.86372 12.5721C3.18682 12.6201 3.51121 12.6525 3.85117 12.6525C4.31959 12.6525 4.79061 12.5877 5.22788 12.4748C2.83128 11.9895 1.03675 9.88614 1.03675 7.34551V7.28063C1.73355 7.6686 2.54193 7.91125 3.39832 7.94369C1.99046 7.00684 1.06789 5.40435 1.06789 3.59166C1.06789 2.62108 1.32611 1.73095 1.77896 0.955007C4.35203 4.12496 8.22007 6.19717 12.5565 6.42424C12.4761 6.03497 12.4268 5.63143 12.4268 5.22659C12.4268 2.346 14.7572 0 17.6534 0C19.1585 0 20.5171 0.630616 21.4721 1.6505C22.6529 1.42343 23.7843 0.986148 24.7887 0.387971C24.4007 1.60119 23.5741 2.62108 22.4907 3.26856C23.543 3.15438 24.5629 2.86372 25.4997 2.45888C24.7887 3.49434 23.8998 4.41691 22.8799 5.16171Z" fill="url(#paint2_linear)"/>
<defs>
<linearGradient id="paint0_linear" x1="12.7499" y1="0" x2="12.7499" y2="20.7117" gradientUnits="userSpaceOnUse">
<stop stop-color="#B299DA"/>
<stop offset="1" stop-color="#543784"/>
</linearGradient>
<linearGradient id="paint1_linear" x1="13.3024" y1="-2.89851" x2="13.4514" y2="25.7767" gradientUnits="userSpaceOnUse">
<stop stop-color="#D9C88B"/>
<stop offset="1" stop-color="#AA9036"/>
</linearGradient>
<linearGradient id="paint2_linear" x1="13.3024" y1="-2.89851" x2="13.4514" y2="25.7767" gradientUnits="userSpaceOnUse">
<stop offset="0.0904391" stop-color="#DDAE09"/>
<stop offset="0.127005" stop-color="#FFF5D0"/>
<stop offset="0.271574" stop-color="#D1BA6A"/>
<stop offset="0.510797" stop-color="#B9A049"/>
<stop offset="0.706074" stop-color="#AB9135"/>
<stop offset="0.823361" stop-color="#AD9D61"/>
</linearGradient>
</defs>
</svg>

<svg width="26" height="21" fill="none" xmlns="http://www.w3.org/2000/svg"><path d="M22.88 5.162c.017.227.017.453.017.678 0 6.91-5.26 14.872-14.87 14.872-2.961 0-5.712-.858-8.027-2.348.42.048.825.065 1.263.065a10.47 10.47 0 006.489-2.233 5.237 5.237 0 01-4.888-3.624c.323.048.647.08.987.08.469 0 .94-.064 1.377-.177a5.225 5.225 0 01-4.191-5.13v-.064a5.28 5.28 0 002.361.663 5.219 5.219 0 01-2.33-4.352c0-.97.258-1.861.711-2.637a14.866 14.866 0 0010.777 5.47c-.08-.39-.13-.794-.13-1.198A5.226 5.226 0 0117.654 0c1.506 0 2.864.63 3.82 1.65A10.326 10.326 0 0024.788.389a5.217 5.217 0 01-2.298 2.88 10.475 10.475 0 003.009-.81 11.216 11.216 0 01-2.62 2.704z" fill="#000"/><path d="M22.88 5.162c.017.227.017.453.017.678 0 6.91-5.26 14.872-14.87 14.872-2.961 0-5.712-.858-8.027-2.348.42.048.825.065 1.263.065a10.47 10.47 0 006.489-2.233 5.237 5.237 0 01-4.888-3.624c.323.048.647.08.987.08.469 0 .94-.064 1.377-.177a5.225 5.225 0 01-4.191-5.13v-.064a5.28 5.28 0 002.361.663 5.219 5.219 0 01-2.33-4.352c0-.97.258-1.861.711-2.637a14.866 14.866 0 0010.777 5.47c-.08-.39-.13-.794-.13-1.198A5.226 5.226 0 0117.654 0c1.506 0 2.864.63 3.82 1.65A10.326 10.326 0 0024.788.389a5.217 5.217 0 01-2.298 2.88 10.475 10.475 0 003.009-.81 11.216 11.216 0 01-2.62 2.704z" fill="url(#paint0_linear)"/><defs><linearGradient id="paint0_linear" x1="12.75" y1="0" x2="12.75" y2="20.712" gradientUnits="userSpaceOnUse"><stop stop-color="#B299DA"/><stop offset="1" stop-color="#543784"/></linearGradient></defs></svg>
